X:1
T:Transcendental Etudes after Paganini
T:Transcendental Etudes after Paganini
T:no 6 in A Minor - 1838 Version
T:Franz Liszt Niccolò Paganini 
C:Franz Liszt
Z:Niccolò Paganini
%%score { ( 1 2 ) | ( 3 5 ) | 4 }
L:1/8
Q:1/4=100
M:2/4
K:C
V:1 treble nm="Piano" snm="Pno."
V:2 treble 
V:3 bass 
V:5 bass 
V:4 treble 
V:1
"^Quasi Presto (a Cappricio)""^Tema.""_carratteristicamente"!mf!!ped! Az/>[Q:1/4=80]!1!A/!ped-up![Q:1/4=120] (!2!A/c/B/A/) | %1
!ped! ez/>[Q:1/4=80]!1!E/!ped-up![Q:1/4=120] (!2!E/^G/^F/E/) | %2
!ped! Az/>[Q:1/4=80]!1!A/!ped-up![Q:1/4=120] (!2!A/c/B/A/) | %3
[Q:1/4=110] (e2!ped! !wedge!E) z!ped-up! :| %4
!ped! !wedge!az/>[Q:1/4=80]!1!a/!ped-up![Q:1/4=120] (!3!a/_b/a/g/) | %5
!ped! !wedge!fz/>[Q:1/4=80]!1!d/!ped-up![Q:1/4=120] (!2!d/f/e/d/) | %6
!ped! !wedge!gz/>[Q:1/4=80]!1!g/!ped-up![Q:1/4=120] (!3!g/a/g/f/) | %7
!ped! !wedge!ez/>[Q:1/4=80]!1!c/!ped-up![Q:1/4=120] (!2!c/e/d/c/) | %8
!ped! !wedge!fz/>[Q:1/4=80]B/!ped-up![Q:1/4=120] (B/d/c/B/) | %9
!ped! !wedge!ez/>[Q:1/4=80]A/!ped-up![Q:1/4=120] (A/c/B/A/) | %10
[I:staff +1] ([F,F]>[I:staff -1][^D^d])[I:staff +1] ([E,E]/[I:staff -1]e/=d/B/) | %11
 ([EA]2 !arpeggio!!wedge![ca]) z | %12
!8va(! !arpeggio!!>!!wedge![ea^c'a']!ped!z/>!ped-up![Q:1/4=80][aa']/[Q:1/4=120] !wedge![aa']/!wedge![_b_b']/!wedge![aa']/!wedge![gg']/!8va)! | %13
 !arpeggio!!>!!wedge![Afaf']!ped!z/>!ped-up![Q:1/4=80][dd']/[Q:1/4=120] !wedge![dd']/!wedge![ff']/!wedge![ee']/!wedge![dd']/ | %14
!8va(! !arpeggio!!>!!wedge![dgbg']!ped!z/>!ped-up![Q:1/4=80][gg']/[Q:1/4=120] !wedge![gg']/!wedge![aa']/!wedge![gg']/!wedge![ff']/!8va)! | %15
 !arpeggio!!>!!wedge![Gege']!ped!z/>!ped-up![Q:1/4=60][cc']/[Q:1/4=120] !wedge![cc']/!wedge![ee']/!wedge![dd']/!wedge![cc']/ | %16
 !arpeggio!!>!!wedge![_Bff']!ped!z/>!ped-up![Q:1/4=60]!wedge![B_b]/[Q:1/4=120] !wedge![Bb]/!wedge![dd']/!wedge![cc']/!wedge![Bb]/ | %17
 !arpeggio!!>!!wedge![Aeae']!ped!z/>!ped-up![Q:1/4=60][Aa]/[Q:1/4=120] !wedge![Aa]/!wedge![cc']/!wedge![Bb]/!wedge![Aa]/ | %18
 (!^!F>[^D^d]) (E/e/=d/B/) | ([CEA]2 !wedge![ac'a']) z |] %20
"_leggieramente""^Var I"{a-c'-} (3!wedge![ac'e']!wedge![eac']!wedge![cea] (3!wedge![Ace]!wedge![EAc]!wedge![CEA] | %21
{e-^g-} (3!wedge![egb]!wedge![Beg]!wedge![^GBe] (3!wedge![EGB]!wedge![B,EG]!wedge![^G,B,E] | %22
{a-c'-} (3!wedge![ac'e']!wedge![eac']!wedge![cea] (3!wedge![Ace]!wedge![EAc]!wedge![CEA] |1 %23
 (3z!<(! !wedge![^GBe]!wedge![Be^g] !wedge![gbe']!<)! z :|2 %24
 (3z !wedge![^GBe]!wedge![Be^g] !wedge![gbe'] z || %25
"_sempre stacc."!8va(!{^c'-e'-} (3!wedge![c'e'a']!wedge![ac'e']!wedge![eac']!8va)! (3!wedge![^cea]!wedge![ce]!wedge![Ec] | %26
 (3z !wedge![FAd]!wedge![Adf] (3!wedge![dfa]!wedge![fad']!wedge![ad'f'] | %27
 (3!arpeggio!!wedge![bd'g']!wedge![gbd']!wedge![dgb] (3!wedge![Bdg]!wedge![Bd]!wedge![DB] | %28
 (3z !wedge![EGc]!wedge![Gce] (3!wedge![ceg]!wedge![egc']!wedge![gc'e'] | %29
 (3!>!!wedge![^gbf']!wedge![fgd']!wedge![dfb] (3!wedge![Bdg]!wedge![^GBf]!wedge![FGd] | %30
 (3!>!!wedge![ac'e']!wedge![eac']!wedge![cea] (3!wedge![Ace]!wedge![EAc]!wedge![CEA] | %31
 (3!wedge![DFB]!wedge![FAd]!wedge![ABf] (3!wedge![^GBe]!wedge![Bd^g]!wedge![deb] | %32
 (3!wedge![cea]!wedge![eac']!wedge![ac'e'] !wedge![c'e'a'] z |] %33
[K:bass]"^Var II""_sotto voce" (A,/^G,/A,/G,/){_A,} (A,/=B,/C/D/) | (E/^D/E/D/){F} (E/=D/C/B,/) | %35
 (A,/^G,/A,/G,/){_A,} (A,/=B,/C/D/) | (E/^D/E/D/){F} !wedge!E!wedge!E, | %37
[K:treble] z2"^marcato""_con agitazione" (!^![Aa]2- | [Aa][^G^g] !tenuto![ee']2 | %39
 [ee'][dd'][cc'][Bb]) | ([Bb]2 [Ee]2) |"^più agitato" [EA]/^G/[EA]/G/{[_B,_B]} ([A,A]/=G/F/E/) | %42
[K:bass] (D/^C/D/C/){[_E,_E]} ([D,D]/=E/F/D/) | (G/^F/G/F/){[_A,_A]} ([G,G]/=F/E/D/) | %44
 (C/B,/C/B,/){[_D,_D]} ([C,C]/=D/E/C/) | (F/E/F/E/){=G} (F/D/C/B,/) | (E/^D/E/D/){F} (E/C/B,/A,/) | %47
 (B,/^A,/=B,/A,/){C} [G,B,]/F/E/G,/ | (=A,/^G,/A,/G,/){B,} A, z | %49
[K:treble]"_appassionato"!8va(! z !tenuto!.[=gae'a']2 (!^![ge'_b']- | %50
 [ge'b'][af'a'][faf'][dfd'])!8va)! | z !tenuto!.[d=fd']2 (!^![ege']- | [ege'][dfd'][cec'][Geg]) | %53
 z"_più cresc." !^![FBf]2 (!^![=GB=g]- | [GBg][GBf] [EAe]>[CEc]) | %55
"^ritard." [A,B,^DB][Q:1/4=110][A,B,DB][Q:1/4=100]!<(! [^G,=Dc]/[B,B]/[Q:1/4=90]!^!!fermata![Ff]/!<)![Ee]/ | %56
!p![Q:1/4=100] z .[A,DFA].[A,CEA] z |] %57
!ff!"^molto energico""^Var III"[Q:1/4=100] (!^![A,A]/!ped!!wedge![^D^F]/) z/ !wedge![A,A]/ !wedge![A,A]/!wedge![Cc]/!wedge![B,B]/!ped-up!!wedge![A,A]/ | %58
 (!^![Ee]/!wedge![^GB]/) z/ !wedge![Ee]/ !wedge![Ee]/!wedge![=G=g]/!wedge![Ff]/!wedge![Ee]/ | %59
 (!^![A,A]/!ped!!wedge![^D^F]/) z/ !wedge![A,A]/ !wedge![A,A]/!wedge![Cc]/!wedge![B,B]/!ped-up!!wedge![A,A]/ | %60
 ([^G,^G]/!wedge!B,/) z/ ^D/ ([G,B,=F]/!wedge!E/) z | %61
 (!^![Aa]/!ped!!wedge![^d^f]/) z/ !wedge![Aa]/ !wedge![Aa]/!wedge![cc']/!wedge![Bb]/!ped-up!!wedge![Aa]/ | %62
!8va(! (!^![ee']/!wedge![^gb]/) z/ !wedge![ee']/ !wedge![ee']/!wedge![=g=g']/!wedge![ff']/!wedge![ee']/!8va)! | %63
 (!^![Aa]/!ped!!wedge![^d^f]/) z/ !wedge![Aa]/ !wedge![Aa]/!wedge![cc']/!wedge![Bb]/!ped-up!!wedge![Aa]/ | %64
 (!wedge![^G^g]/!wedge![Bb]/) z/ !wedge![^d^d']/ (!^![ff']/[=e=e']/)!wedge![^G,E] | %65
"_sempre"!ff!!8va(! (!^![gaa']/!ped!!wedge![^c'e']/) z/ [aa']/ [aa']/[_b_b']/[aa']/!ped-up![gg']/ | %66
 (!^![ff']/!wedge![ad']/) z/ [dd']/ [dd']/[ff']/[ee']/[dd']/ | %67
 (!^![=fgg']/!ped!!wedge![bd']/) z/ !wedge![gg']/ !wedge![gg']/!wedge![_a_a']/!wedge![gg']/!ped-up!!wedge![ff']/ | %68
 (!^![ee']/!wedge![gc']/)!8va)! z/ !wedge![Bb]/!<(! !wedge![Bb]/!wedge![cc']/!wedge![=d=d']/!wedge![ee']/!<)! | %69
 (!^![ff']/!ped!!wedge![^gb]/) z/ [Bb]/ (!wedge![Bb]/!wedge![dd']/!wedge![cc']/!ped-up!!wedge![Bb]/) | %70
 (!^![ee']/!ped!!wedge!a/) z/ [Aa]/ !wedge![Aa]/!wedge![cc']/!wedge![Bb]/!ped-up!!wedge![Aa]/ | %71
 !wedge!!^![Dd]/!wedge![Ff]/!wedge![Ee]/!wedge![^D^d]/ !wedge!!^![Ee]/!wedge![B,B]/!wedge![=D=d]/!wedge![Cc]/ | %72
!>(! !^![B,B]2!>)! [A,EA] z |]: %73
"^Var IV"!p!"_delicatamente"[Q:1/4=120]!8va(! (a/-[aa']/[^g^g']/[=g=g']/[^f^f']/[=f=f']/[ee']/[^d^d']/) | %74
 ([ff']/[ee']/[^d^d']/[ff']/!8va)! [ee']/[Bb]/[^G^g]/e/) | %75
!8va(! (a/-[aa']/[^g^g']/[=g=g']/[^f^f']/[=f=f']/[ee']/[^d^d']/) | %76
!>(! ([ff']/[ee']/[^d^d']/[ff']/)!>)! .[ee']!8va)! .E :| %77
!8va(! (a/-[aa']/).[^g^g']/.[=g=g']/.[^f^f']/.[=f=f']/.[ee']/.[dd']/!8va)! | %78
 .[^c^c']/.[ee']/.[Aa]/.[cc']/ .[dd']/.[Aa]/.[Af]/.[Fd]/ | %79
!8va(! (g/-[gg']/).[^f^f']/.[=f=f']/.[ee']/.[_e_e']/.[dd']/.[cc']/!8va)! | %80
 .[Bb]/.[dd']/.[Gg]/.[Bb]/ .[cc']/.[Gg]/.[Ge]/.[Ec]/ | %81
 (!^!f/4-[ff']/4)z/[ee']/[_e_e']/[dd']/[^c^c']/[=c=c']/[Bb]/ | %82
 (!^!e/4-[ee']/4)z/[^d^d']/[=d=d']/[^c^c']/[=c=c']/[Bb]/[Aa]/ | %83
 !^![Ff]/[Ee]/[^D^d]/[=D=d]/ !^![^C^c]/[=C=c]/[B,B]/[^G,^G]/ | %84
 ([A,A]/F/E/^D/(5:4:5=D/^C/=C/B,/_B,/) |] %85
"^Var V"[Q:1/4=110] A, ([ac'f']/!p!f/[I:staff +1][Ace]/E/)[I:staff -1] x | %86
 x ([^gb^d']/^d/[I:staff +1][^GBe]/E/)[I:staff -1] x | %87
 x ([ac'f']/f/[I:staff +1][Ace]/E/)[I:staff -1] x | %88
 x ([^gb^d']/^d/[I:staff +1][^GBe]/E/)[I:staff -1] z | %89
!f![I:staff +1]({E,^F,^G,)} !wedge!A,[I:staff -1] ([ac'f']/f/[I:staff +1][Ace]/E/)!>(! (3(C/B,/!>)!A,/) | %90
 !wedge!^G,[I:staff -1] ([^gb^d']/^d/[I:staff +1][^GBe]/E/)!<(! (3(E,/^F,/G,/)!<)! | %91
 !wedge!A,[I:staff -1] ([ac'f']/f/[I:staff +1][Ace]/E/) (3(C/B,/A,/) | %92
 !wedge!^G,[I:staff -1] ([^gb^d']/^d/[I:staff +1][^GBe]/E/) (3(A,/B,/C/) | %93
 !wedge!^C!8va(![I:staff -1] ([e'g'_b']/_b/!8va)![I:staff +1][ega]/A/) (3(A,/=B,/C/) | %94
 !wedge!D[I:staff -1] ([ad'e']/e/[I:staff +1][Adf]/F/)[I:staff -1] (3(E/D/C/) | %95
[I:staff +1] !wedge!B,[I:staff -1] ([d'f'_a']/_a/[I:staff +1][dfg]/G/) (3(G,/=A,/B,/) | %96
 !wedge!C[I:staff -1] ([gc'^d']/^d/[I:staff +1][Gce]/E/) (3(A,/B,/^C/) | %97
 !wedge!!^!D!8va(![I:staff -1] ([d'f'=b']/b/!8va)![I:staff +1][df_b]/_B/)[I:staff -1] (3(_B,/C/D/) | %98
 !^!E!8va(! ([bd'^g']/^g/!8va)![I:staff +1][ca]/A/)[I:staff -1] (3(F/E/_E/) | %99
 !wedge!D ([abf']/f/)([^GBe]/E/) (3(D/C/B,/) | !wedge!!^!A,!8va(! [e'c'']/c'/[e'a']/a/!8va)! z |]: %101
!ff!"_con strepito"!8va(! !^![e'c''e'']3 !wedge![d'b'd'']/!wedge![c'a'c'']/ | %102
 !wedge![b^g'b']/!wedge![af'a']/!wedge![^ge'g']/!wedge![fd'f']/!8va)! !wedge![ec'e']/!wedge![dbd']/!wedge![cac']/!wedge![Bgb]/ | %103
 [cac']3 !wedge![dbd']/!wedge![ec'e']/ | %104
 !wedge![dbd']/!wedge![cac']/!wedge![B^gb]/!wedge![Afa]/ [^Geg]2 :| %105
 !^![^c-e^c'-]2 !wedge![cac']!8va(![d=bd']/[ec'e']/ | %106
!<(! [fd'f']/[ge'g']/[af'a']/[bg'b']/ [^c'a'^c'']/[d'b'd'']/[e'c''e'']/[f'd''f'']/!8va)!!<)! | %107
 [B-db-]2 !wedge![Bgb]!8va(![c=ac']/[dbd']/ | %108
!<(! [ec'e']/[fd'f']/[ge'g']/[af'a']/ [bg'b']/[c'a'c'']/[d'b'd'']/[e'c''e'']/!<)! | %109
 [f'^g'b'f'']/[d'd'']/[bb']/[^gg']/ !^![fgbf']/[^d^d']/!^![egbe']/[=d=d']/ | %110
 [c'^d'^f'c'']/[aa']/[^ff']/[^dd']/!8va)! !^![cdfc']/[^A^a]/!^![Bdfb]/[=A=a]/ | %111
 !^![=FAB=f]/[^D^d]/!^![EABe]/[=D=d]/ !^![^CE^c]/[B,B]/!^![=CE=c]/[B,B]/ | %112
 (!^![A,EA]2[I:staff +1] !wedge![C,E,A,])[I:staff -1] z |]: %113
"^Var VII""^quasi \nFlauto\n"!p![Q:1/4=80] (3(e'/f'/e'/) !>!c'2 (3(a/b/a/) | %114
 (3(b/c'/b/) (3(^g/a/g/) (3(e/f/e/) !wedge![B,DE] | (3(e'/f'/e'/) !>!c'2"^rinforzando" (3(C/D/C/ | %116
 (3B,/C/B,/^D) E/B,/!wedge!^G, :|!p! (3(e'/f'/e'/) ^c'2 (3(a/_b/a/) | %118
 (3(d'/e'/d'/) (3(!>![^CA]/[E_B]/[CA]/) (3(!>![A,F]/[DG]/[A,F]/) (3(D/4E/4)!wedge!D/4 z/ | %119
 (3(d'/e'/d'/ b2) (3(g/a/g/) | %120
 (3(c'/d'/c'/) (3([B,G]/[DA]/[B,G]/) (3([G,E]/[CF]/[G,E]/) (3(C/4D/4!wedge!C/4) z/ | %121
 (3(d'/e'/d'/) f'2 (3(D/4F/4E/4)!wedge!D/4 z/4 | (3(c'/d'/c'/) e'2 (3(C/4E/4D/4)!wedge!C/4 z/4 | %123
!p! (3(B/4d/4c/4)!wedge!B/4 z/4 (3(f/4a/4g/4)!wedge!f/4 z/4 (3(e/4=g/4f/4)!wedge!e/4 z/4 (3(b/4d'/4c'/4)!wedge!b/4 z/4 | %124
 (3(a/4c'/4b/4)!wedge!a/4 z/4!8va(! (3(f'/4a'/4g'/4)!wedge!f'/4 z/4 [c'e'c'']!8va)! z |] %125
!ff!"^Var VIII"[Q:1/4=100]!ff! !arpeggio!!wedge![Eca]!arpeggio!!wedge![Aec']!arpeggio!!wedge![Adb]!arpeggio!!wedge![Aca] | %126
 !arpeggio!!wedge![e^ge']"_simile"!arpeggio!!wedge![dff']!arpeggio!!wedge![cee']!arpeggio!!wedge![Bed'] | %127
 !arpeggio!!wedge![Aec']!arpeggio!!wedge![Aec']!arpeggio!!wedge![Adb]!arpeggio!!wedge![Aca] | %128
 !arpeggio!!wedge![ebe']!arpeggio!!wedge![^dba']!arpeggio!!wedge![eb^g']!arpeggio!!wedge![e^ge'] | %129
"_martellato" z/ !wedge!A/!wedge!e'/ !wedge!c/!wedge!e'/ !wedge!B/!wedge!e'/ !wedge!A/ | %130
!wedge!e'/!wedge!B/ e'/d/ f'/c/ e'/B/ | e'/c/!8va(! a'/e/ b'/^g/ c''/a/ | %132
 b'/b/ ^d''/[b^d']/ e''/ [^gbe']/!wedge!e/!8va)! E/ || %133
 !arpeggio!!wedge![A^ca]!arpeggio!!wedge![Ad_b]!arpeggio!!wedge![Aea]!arpeggio!!wedge![EAcg] | %134
 [FAdf]/!<(!!wedge![F,D]/!wedge![G,E]/!wedge![Ge]/ !wedge![Af]/!<)!!8va(! !wedge![a'f'']/!wedge![f'd'']/!wedge![fd']/!8va)! | %135
 !arpeggio!!wedge![GBg]!arpeggio!!wedge![Gc_a]!arpeggio!!wedge![Gdg]!arpeggio!!wedge![DGBf] | %136
 [EGce]/[K:bass]!<(!!wedge![E,C]/!wedge![F,D]/[K:treble]!wedge![Fd]/ !wedge![Ge]/!<)!!8va(! !wedge![g'e'']/!wedge![e'c'']/!wedge![ec']/!8va)! | %137
!f! !wedge![ff']/!wedge![^GB]/ !wedge![dd']/!wedge![GB]/ !wedge![ee']/!wedge![GB]/ !wedge![ff']/!wedge![GB]/ | %138
 !wedge![ee']/!wedge![Ac]/ !wedge![dd']/!wedge![F^G]/ !wedge![cc']/!wedge![DA]/ !wedge![_B_b]/!wedge![^CE]/ | %139
 !wedge![Aa]/!wedge![DF]/ !wedge![Aa]/!wedge![^D^F]/ !wedge![Aa]/!wedge!E/ !wedge![^G^g]/!wedge!E/ | %140
 [Aa]/!<(! [A,CEA]/[CEAc]/[EAce]/[Acea]/[ceac']/[eac'e']/[ac'e'a']/!<)! |]: %141
"^Var IX""_fantasticamente"!p![Q:1/4=110] .c''/.a/.e/.C/.A,/.e/.C/.A,/ | %142
 .b'/.^g/.e/.B,/.^G,/.B/.^G/.E,/ | .c''/.a/.e/.C/.A,/.e/.C/.A,/ | %144
 .b'/.^g/.e/.E/[K:bass].C/.F,/.B,/.E,/ :|[K:treble]!p!!8va(! e''/^c'/!8va)!g/E/^C/e/_B,/A,/ | %146
 F/[I:staff +1]F,/!8va(![I:staff -1] f''/!>(!d'/!8va)!a/F/D/C/!>)! | %147
!8va(! d''/b/!8va)!f/D/=B,/d/_A,/G,/ | E/[I:staff +1]C,/!8va(![I:staff -1] e''/c'/!8va)!g/E/c/e'/ | %149
 !wedge![^gbf']/[I:staff +1] (!arpeggio![Bf]/4"_leggiero"[I:staff -1]e/4!arpeggio!!wedge![f^gd']/)[I:staff +1] (!arpeggio!d/4[I:staff -1]c/4!arpeggio!!wedge![dfb]/)[I:staff +1] (!arpeggio!B/4[I:staff -1]A/4!arpeggio!!wedge![Bdg]/)[I:staff +1] (!arpeggio!G/4[I:staff -1]F/4 | %150
!arpeggio!!wedge![Ace]/)[I:staff +1] (!arpeggio!E/4[I:staff -1]D/4!arpeggio!!wedge![EAc]/)[I:staff +1] (!arpeggio!C/4[I:staff -1]B,/4!arpeggio!!wedge![CEA]/)[I:staff +1] (!arpeggio!A,/4[I:staff -1]G,/4!arpeggio!!wedge![A,CE]/)[I:staff +1] !arpeggio!F,/4[I:staff -1]E,/4 | %151
 !wedge![A,B,F]/[K:bass]!wedge!F,/[K:treble] !wedge!a'/!wedge!f/ !wedge!^G/[K:bass]!wedge!E,/[K:treble] !wedge!b'/!wedge!^g/ | %152
 !wedge!A/!wedge![A,C]/!8va(! !wedge!c''/!wedge![c'e']/ !wedge!a''!8va)! z |] %153
[Q:1/4=80]"^Var X""^marcato ed espressivo"!mf! A7/2 c/ | B/A/^G/^F/ z/ F/!wedge!G/ z/ | %155
 A2 A/B/c/d/ |!>(! ^d>e!>)! !wedge!^G z |!p! A7/2 c/ | B/A/^G/^F/ z/ F/!wedge!G/ z/ | A2 A/B/c/d/ | %160
!>(! ^d>e!>)! !wedge!^G[K:bass] E,, | %161
[K:treble][Q:1/8=120]!p! z !>![=GA^ca]3/2!8va(! [g'e'']/[e'^c'']/[^c'a']/ | %162
 [_bg']/[ge']/!8va)![e^c']/[^ca]/ [_Bg]/!wedge![Af]/!wedge![Ge]/!wedge![Fd]/ | %163
 z [GBg]3/2!8va(! ([f'd'']/[d'b']/)([bg']/ | %164
 [_af']/)([fd']/!8va)![db]/)([Bg]/[_Af]/)!wedge![Ge]/!wedge![Fd]/!wedge![Ec]/ | %165
 z !^![B^gf']3/2 !wedge![fd']/!wedge![db]/!wedge![ca]/ | %166
 [B^g]/[^G=f]/[=Fd]/[EB]/ [Ec]/[Ae]/[ca]/[_B=g]/ | %167
 ([Af]/[fd']/[db]/[ca]/) [B^g]/(([fg-f']/[ege']/))!8va(![d'e'^g'e'']/ | %168
 ([c'a'e'']2 !wedge!a') z!8va)! |] %169
[K:bass]O!fff!"^Var XI"[Q:1/4=60] (3z/4 (E,/4A,/4(3[CE]/4[K:treble]E/4A/4(3[ce]/4e/4a/4(3[c'e']/4!8va(!e'/4a'/4(3[d''e'']/4^g'/4e'/4(3[d'e']/4^g/4e/4!8va)!(3[ce]/4A/4E/4[K:bass](3[CE]/4A,/4E,/4) | %170
 !wedge!!^!E,/[K:treble]([ee']/ !wedge!!^!=G/)([gg']/ !wedge!!^!F/)([ff']/ !wedge!!^!E/)!wedge![ee']/ | %171
[K:bass] (3z/4 (E,/4A,/4(3[CE]/4[K:treble]!<(!E/4A/4(3[ce]/4e/4a/4(3[c'e']/4!<)!!8va(!e'/4a'/4(3[d''e'']/4^g'/4e'/4(3[d'e']/4^g/4e/4!8va)!(3[ce]/4A/4E/4[K:bass](3[CE]/4A,/4E,/4) | %172
[K:treble] !wedge![^G,B,E]/4!<(! [Ee]/4[Ff]/4[^F^f]/4[Gg]/4[^G^g]/4[Aa]/4[^A^a]/4[Bb]/4[cc']/4[^c^c']/4!8va(![dd']/4[^d^d']/4[ee']/4[=ff']/4!<)![ee']/4!8va)! | %173
[K:bass]!fff! (3z/4!<(! (E,/4A,/4(3[CE]/4[K:treble]E/4A/4(3[ce]/4e/4a/4!<)!(3[c'e']/4!8va(!e'/4a'/4(3[d''e'']/4^g'/4e'/4(3[d'e']/4^g/4e/4!8va)!(3[ce]/4A/4E/4[K:bass](3[CE]/4A,/4E,/4) | %174
 !wedge!!^!E,/[K:treble]([ee']/ !wedge!!^!G/)([gg']/ !wedge!!^!F/)([ff']/ !wedge!!^!E/)!wedge![ee']/ | %175
[K:bass] (3z/4 (E,/4A,/4(3[CE]/4[K:treble]E/4A/4(3[ce]/4e/4a/4(3[c'e']/4!8va(!e'/4a'/4(3[d''e'']/4^g'/4e'/4(3[d'e']/4^g/4e/4!8va)!(3[ce]/4A/4E/4[K:bass](3[CE]/4A,/4E,/4) | %176
[K:treble] !wedge![^G,B,E]/4!<(! [Ee]/4[Ff]/4[^F^f]/4[Gg]/4[^G^g]/4[Aa]/4[^A^a]/4[Bb]/4[cc']/4[^c^c']/4!8va(![dd']/4[^d^d']/4[ee']/4[=ff']/4!<)![ee']/4!8va)! | %177
[K:treble] (3z/4 A,/4^C/4(3[EA]/4A/4^c/4(3[g_b]/4!8va(!b/4^c'/4(3g'/4c'/4b/4(3f'/4c'/4a/4!8va)!(3f/4c/4A/4(3e/4A/4G/4(3[EG]/4_B,/4A,/4 | %178
 !wedge!!^![dfd']/!wedge![DF]/ !wedge!!^![faf']/!wedge![FA]/ !wedge!!^![ege']/!wedge![EG]/ !wedge!!^![dfd']/!wedge![DF]/ | %179
 (3z/4 G,/4B,/4(3[DG]/4G/4B/4(3[f_a]/4!8va(!a/4b/4(3f'/4b/4a/4(3e'/4b/4g/4!8va)!(3e/4B/4G/4(3d/4G/4F/4(3[DF]/4_A,/4G,/4 | %180
 !wedge!!^![cec']/!wedge![CE]/ !wedge!!^![ege']/!wedge![EG]/ !wedge!!^![dfd']/!wedge![DF]/ !wedge!!^![cec']/!wedge![CE]/ | %181
"_sempre stacc. e marcatissimo" .[f^gbd'f']/.F/ .[Bdfgb]/.B,/ .[_e^fac'e']/._E/ .[Acefa]/.A,/ | %182
 .[_deg_b_d']/._D/ .[G_Bdeg]/.G,/ .[=B_cf_a_c']/._C/ .[F_Ac=df]/.F,/ | %183
 .[=Bdf=a=b]/.B,/ .[FABdf]/.F,/ .[B^dfab]/.A,/ .[FABdf]/.F,/ | %184
[Q:1/4=50] .[Beab].[A,B,E] .[de^gbe'][^G,B,E] | %185
[K:bass]"^Coda\n"[Q:1/4=60]!fff! (24:16:24z/4!ped! (C,/4E,/4[A,C]/4[K:treble]C/4E/4[Ac]/4c/4e/4[ac']/4!8va(!c'/4e'/4[a'c'']/4e'/4c'/4!8va)![ac']/4e/4c/4[Ac]/4E/4C/4[K:bass][A,C]/4E,/4C,/4)!ped-up! | %186
 (24:16:24z/4!ped! (^C,/4E,/4[A,^C]/4[K:treble]^C/4E/4[A^c]/4c/4e/4[a^c']/4!8va(!c'/4e'/4[a'^c'']/4e'/4c'/4!8va)![ac']/4e/4c/4[Ac]/4E/4C/4[K:bass][A,C]/4E,/4C,/4)!ped-up! | %187
 (24:16:24z/4!ped! (F,/4A,/4[K:treble][DF]/4F/4A/4[df]/4f/4a/4[d'f']/4!8va(!f'/4a'/4[d''f'']/4a'/4f'/4!8va)![d'f']/4a/4f/4[df]/4A/4F/4[DF]/4[K:bass]A,/4F,/4)!ped-up! | %188
[K:treble] z/!ped! !wedge![Bdb]/ !wedge!^G/!wedge![dfd']/ !wedge!B/!wedge![f^gf']/ !wedge!E/!wedge![dege']/!ped-up! | %189
[K:bass] (24:16:24z/4!ped! (C,/4E,/4[A,C]/4[K:treble]C/4E/4[Ac]/4c/4e/4[ac']/4!8va(!c'/4e'/4[a'c'']/4e'/4c'/4!8va)![ac']/4e/4c/4[Ac]/4E/4C/4[K:bass][A,C]/4E,/4C,/4)!ped-up! | %190
 (24:16:24z/4!ped! (^C,/4E,/4[A,^C]/4[K:treble]^C/4E/4[A^c]/4c/4e/4[a^c']/4!8va(!c'/4e'/4[a'^c'']/4e'/4c'/4!8va)![ac']/4e/4c/4[Ac]/4E/4C/4[K:bass][A,C]/4E,/4C,/4)!ped-up! | %191
 (24:16:24z/4!ped! (F,/4A,/4[K:treble][DF]/4F/4A/4[df]/4f/4a/4!8va(![d'f']/4f'/4a'/4[d''f'']/4a'/4f'/4!8va)![d'f']/4a/4f/4[df]/4A/4F/4[DF]/4[K:bass]A,/4F,/4)!ped-up! | %192
 z/[K:treble] !wedge![Bdb]/ !wedge!^G/!wedge![dfd']/ !wedge!B/!wedge![f^gf']/ !wedge!E/!wedge![dege']/ || %193
[K:A][I:staff +1] (24:16:24!^!A,,/4!ped!C,/4E,/4A,/4[I:staff -1]C/4!<(!E/4A/4c/4e/4a/4!8va(!c'/4e'/4!^!a'/4!<)!e'/4c'/4!8va)!a/4e/4c/4A/4E/4C/4[I:staff +1]A,/4E,/4C,/4!ped-up! | %194
 (26:16:26!^!A,,/4!ped!C,/4E,/4A,/4[I:staff -1]C/4!<(!E/4A/4c/4e/4a/4!<)!!8va(!c'/4e'/4a'/4!^!c''/4a'/4e'/4c'/4!8va)!a/4e/4c/4A/4E/4C/4[I:staff +1]A,/4E,/4C,/4!ped-up! | %195
 (28:16:28!^!A,,/4!ped!C,/4E,/4!<(!A,/4C/4[I:staff -1]E/4A/4c/4e/4!<)!a/4c'/4!8va(!e'/4a'/4c''/4!^!e''/4c''/4a'/4e'/4!8va)!c'/4a/4e/4c/4A/4E/4[I:staff +1]C/4A,/4E,/4C,/4!ped-up! | %196
 (30:16:30!^!A,,/4!ped!C,/4E,/4!<(!A,/4C/4[I:staff -1]E/4A/4c/4e/4!<)!a/4c'/4!8va(!e'/4a'/4c''/4e''/4!^!=f''/4e''/4c''/4a'/4e'/4!8va)!c'/4a/4e/4c/4A/4E/4[I:staff +1]C/4G,/4E,/4C,/4!ped-up! | %197
[Q:1/4=144]"^\n" !trill(!TA,,4!ped! | !trill(!TA,,2 !trill(!TA,,2[Q:1/4=20]!ped-up! | %199
[Q:1/8=50][I:staff -1] !wedge![Acea] z z2 |] %200
V:2
 !wedge![Eca] x3 | !wedge![B^ge'] x3 | !wedge![Eca] x3 | !wedge![B^ge'] x3 :| %4
 !arpeggio!!wedge![e^c'a'] x3 | !arpeggio!!wedge![Aaf'] x3 | !arpeggio!!wedge![dbg'] x3 | %7
 !arpeggio!!wedge![Gge'] x3 | !arpeggio!!wedge![Bbf'] x3 | !arpeggio!!wedge![Aae'] x3 | x3 E | x4 | %12
!8va(! x4!8va)! | x4 |!8va(! x4!8va)! | x4 | x4 | x4 | x2 EF/=D/ | x4 |] x4 | x4 | x4 |1 x4 :|2 %24
 x4 ||!8va(! x2!8va)! x2 | x4 | x4 | x4 | x4 | x4 | x4 | x4 |][K:bass] F,F, x2 | [E,^G,][E,G,] x2 | %35
 F,F, x2 | [E,^G,][E,G,] x2 |[K:treble] x4 | x4 | x4 | x4 | [G,A,][G,A,] x2 | %42
[K:bass] [D,F,][D,F,] x2 | [F,G,D][F,G,D] x2 | [C,E,][C,E,] x2 | [F,B,][F,B,] x2 | %46
 [E,A,][E,A,] x2 | [^D,A,][D,^A,] =D,2 | [C,E,][D,F,] [C,E,] x |[K:treble]!8va(! x4 | x4!8va)! | %51
 x4 | x4 | x4 | x4 | x4 | x4 |] x4 | x4 | x4 | x4 | x4 |!8va(! x4!8va)! | x4 | x4 |!8va(! x4 | x4 | %67
 x4 | x!8va)! x3 | x4 | x4 | x4 | (F/=G/F/E/-) x2 |]:!8va(! x4 | x2!8va)! x2 |!8va(! x4 | %76
 x3!8va)! x :|!8va(! x4!8va)! | x4 |!8va(! x4!8va)! | x4 | x4 | x4 | x4 | x4 |] x4 | x4 | x4 | x4 | %89
 x4 | x4 | x4 | x4 | x!8va(! x!8va)! x2 | x4 | x4 | x4 | x!8va(! x!8va)! x2 | x!8va(! x!8va)! x2 | %99
 x4 | x!8va(! x2!8va)! x |]:!8va(! x4 | x2!8va)! x2 | x4 | x4 :| x3!8va(! x | x4!8va)! | %107
 x3!8va(! x | x4 | x4 | x2!8va)! x2 | x4 | x4 |]: x .[ce]/.[ce]/!wedge![ce] x | x4 | %115
 x .[ce]/.[ce]/!wedge![ce] !^!E- |E (3(A/B/A/) (3(^G/A/G/) !wedge!E :| %117
 x .[^ce]/.[ce]/!wedge![ce] x | x4 | x .[Bd]/.[Bd]/!wedge![Bd] x | x4 | %121
 x [f^gb]/.[fgb]/!wedge![fgb] x | x [ea]/.[ea]/!wedge![ea] x | %123
 [FA]/ x/ [AB]/ x/ [^GB]/ x/ [de]/ x/ | [ce]/ x/!8va(! [ad']/ x3/2!8va)! x |] x4 | x4 | x4 | x4 | %129
 x4 | x4 | x!8va(! x3 | x7/2!8va)! x/ || x4 | x5/2!8va(! x3/2!8va)! | x4 | %136
 x/[K:bass] x[K:treble] x!8va(! x3/2!8va)! | x4 | x4 | x4 | x4 |]: x4 | x4 | x4 | x2[K:bass] x2 :| %145
[K:treble]!8va(! x!8va)! x3 | x!8va(! x!8va)! x2 |!8va(! x!8va)! x3 | x!8va(! x!8va)! x2 | %149
 x5/2[I:staff +1] !arpeggio![DF]/ x/ !arpeggio![B,D]/ | %150
 x/ !arpeggio![A,C]/ x/ !arpeggio![E,A,]/ x/ !arpeggio![C,E,]/ x/ !arpeggio![A,,C,]/ | %151
 x/[I:staff -1][K:bass] x/[K:treble] x3/2[K:bass] x/[K:treble] x | x!8va(! x2!8va)! x |] C3 C | %154
 DDDD | C2 C[CA] | [=D^G]2 D x | C3 C | DDDD | C2 C[CA] | [=D^G]2 D[K:bass] x | %161
[K:treble] x5/2!8va(! x3/2 | x!8va)! x3 | x5/2!8va(! x3/2 | x!8va)! x3 | x4 | x4 | x7/2!8va(! x/ | %168
 x4!8va)! |][K:bass] x2/3[K:treble] x!8va(! x4/3!8va)! x/[K:bass] x/ | x/[K:treble] x7/2 | %171
[K:bass] x2/3[K:treble] x!8va(! x4/3!8va)! x/[K:bass] x/ |[K:treble] x11/4!8va(! x5/4!8va)! | %173
[K:bass] x2/3[K:treble] x!8va(! x4/3!8va)! x/[K:bass] x/ | x/[K:treble] x7/2 | %175
[K:bass] x2/3[K:treble] x!8va(! x4/3!8va)! x/[K:bass] x/ |[K:treble] x11/4!8va(! x5/4!8va)! | %177
[K:treble] x7/6!8va(! x/3 _b'/ a'/!8va)! a/ g/ x/ | x4 | x7/6!8va(! x/3 _a'/ g'/!8va)! g/ f/ x/ | %180
 x4 | x4 | x4 | x4 | x4 |[K:bass] x2/3[K:treble] x!8va(! x5/6!8va)! x[K:bass] x/ | %186
 x2/3[K:treble] x!8va(! x5/6!8va)! x[K:bass] x/ | %187
 x/[K:treble] x7/6!8va(! x5/6!8va)! x7/6[K:bass] x/3 |[K:treble] x4 | %189
[K:bass] x2/3[K:treble] x!8va(! x5/6!8va)! x[K:bass] x/ | %190
 x2/3[K:treble] x!8va(! x5/6!8va)! x[K:bass] x/ | x/[K:treble] x!8va(! x!8va)! x7/6[K:bass] x/3 | %192
 x/[K:treble] x7/2 ||[K:A] x5/3!8va(! x5/6!8va)! x3/2 | x37/24!8va(! x!8va)! x67/48 | %195
 x25/16!8va(! x63/64!8va)! x29/20 | x22/15!8va(! x6/5!8va)! x4/3 |[I:staff +1] !//-!x2 !trill)!x2 | %198
 !//-!x3/2 x3/2 x/4x/4"^\n"!trill)!x/{G,,A,,} | x4 |] %200
V:3
 !wedge![A,,E,A,C] z z2 | !wedge![E,B,E^G] z z2 | !wedge![A,,E,A,C] z z2 | !wedge![E,B,E^G] z z2 :| %4
"_sempre Pedale" !arpeggio!!wedge![A,,E,A,^C] z z2 | !arpeggio!!wedge![D,A,DF] z z2 | %6
 !arpeggio!!wedge![G,,D,G,B,] z z2 | !arpeggio!!wedge![C,G,CE] z z2 | %8
 !arpeggio!!wedge![D,F,B,F] z z2 | !arpeggio!!wedge![E,CE] z z2 | F,2 E,2 | %11
 ([A,C]2 !arpeggio!!wedge![A,,E,]) z | !arpeggio!!wedge![A,,E,A,^C] z[K:treble] [^CEA] z | %13
[K:bass] !arpeggio!!wedge![D,A,DF] z[K:treble] [DFA] z | %14
[K:bass] !arpeggio!!wedge![G,,D,G,B,] z[K:treble] [B,DG] z | %15
[K:bass] !arpeggio!!wedge![C,G,E] z[K:treble] [EG] z |[K:bass] !arpeggio!!wedge![D,_B,F] z [DF] z | %17
 !arpeggio!!wedge![E,CE] z [CE] z | z3/2 [A,B,]/ z ([^G,B,]/E/) | %19
 ([A,,E,A,]2 !wedge![A,,,E,,A,,]) z |]"_ben marcato" !wedge!A,z/A,/ (A,/C/B,/A,/) | %21
 !wedge!Ez/E,/ (E,/=G,/F,/E,/) | !wedge!A,z/A,/ (A,/C/B,/A,/) |1 %23
 (3:2:2(!^!E2 E,)[K:treble] (3!wedge!e!wedge!E[K:bass]!wedge!E, :|2 %24
 (3:2:2(!^!E2 E,) (3!wedge!E,,!wedge!E,!wedge!E || !wedge!Az/A/ (A/_B/A/G/) | %26
[K:bass] !wedge!Fz/D/ (D/F/E/D/) | !wedge!Gz/G/ (G/A/G/F/) | !wedge!Ez/C/ (C/E/D/C/) | %29
 !wedge!Fz/B,/ (B,/D/C/B,/) | !wedge!Ez/A,/ (A,/C/B,/A,/) | !wedge!F,!wedge!D E,/E/D/B,/ | %32
 ([E,A,]2[K:treble] !wedge![CEA]) z |][K:bass] A,,/^G,,/A,,/G,,/{_B,,} (A,,/=B,,/C,/D,/) | %34
 (B,,/^D,/B,,/D,/){F,} (E,/=D,/C,/B,,/) | (A,,/^G,,/A,,/G,,/){_B,,} (A,,/=B,,/C,/D,/) | %36
 (B,,/^D,/B,,/D,/){F,} !wedge!E,!wedge!E,, | (A,,/^G,,/A,,/G,,/){_B,,} (A,,/=B,,/C,/D,/) | %38
 (B,,/^D,/B,,/D,/){F,} (E,/=D,/C,/B,,/) | (A,,/^G,,/A,,/G,,/){_B,,} (A,,/=B,,/C,/D,/) | %40
 (B,,/^D,/B,,/D,/){F,} !wedge!E,!wedge!E,, | (A,,/^G,,/A,,/G,,/){_B,,} (A,,/=G,,/F,,/E,,/) | %42
 (D,,/^C,,/D,,/C,,/){_E,,} (D,,/=E,,/F,,/D,,/) | (G,,/^F,,/G,,/F,,/){_A,,} (A,,/=F,,/E,,/D,,/) | %44
 (C,,/B,,,/C,,/B,,,/){_D,,} (C,,/=D,,/E,,/C,,/) | (B,,/E,/B,,/E,/){=G,} (F,/D,/C,/B,,/) | %46
 (A,,/^D,/A,,/D,/){F,} (E,/C,/B,,/A,,/) | (B,,/^A,,/B,,/A,,/){C,} (B,,/F,/E,/^G,,/) | %48
 (=A,,/^G,,/A,,/G,,/) !wedge!A,, z | (A,,/^G,,/A,,/G,,/){_B,,} (A,,/=G,,/F,,/E,,/) | %50
 (D,,/^C,,/D,,/C,,/){_E,,} (D,,/=E,,/F,,/D,,/) | (G,,/^F,,/G,,/F,,/){_A,,} (G,,/=F,,/E,,/D,,/) | %52
 (C,,/B,,,/C,,/B,,,/){_D,,} (C,,/=D,,/E,,/C,,/) |!>(! F,/E,/F,/!>)!E,/{=G,} F,/D,/C,/B,,/ | %54
 E,/^D,/E,/D,/{F,} E,/C,/B,,/A,,/ | B,,/^A,,/B,,/A,,/ C,/B,,/!fermata!F,/E,/ | %56
 =A,,/^G,,/A,,/G,,/{B,,} A,, z |] z3/2 [^D,^F,C]/[D,F,C]/ z/ z | %58
 !>![^G,,,^G,,]!>![B,,,B,,] !^![E,,G,,D,E,]2 | z3/2 [^D,^F,C]/[D,F,C]/ z/ z | %60
 !>![B,,,B,,]!>![^D,,^D,]!>![F,,F,]!>![E,,E,] | z3/2 [^D,^F,C]/[D,F,C]/ z/ z | %62
 !>![^G,,,^G,,]!>![B,,,B,,] !^![E,,G,,D,E,]2 | z3/2 [^D,^F,C]/[D,F,C]/ z/ z | %64
 !>![B,,,B,,]!>![^D,,^D,]!>![F,,F,]!wedge![E,,B,,E,] | %65
 (!^![A,,^C,E,A,]3[K:treble][K:bass] !arpeggio!!>![^C,,E,,A,,C,] | %66
 !arpeggio!!>![D,,D,]!>![E,,E,]!arpeggio!!>![F,,F,]!>![^F,,^F,]) | %67
 (!arpeggio!!^![G,,B,,D,G,]3[K:treble][K:bass] !>![B,,,D,,G,,B,,] | %68
 !arpeggio!!>![C,,C,]!>![C,,D,]!arpeggio!!>![^D,,^D,]!>![E,,E,]) | %69
 (!^![F,,^G,,B,,=D,F,]3 [B,,,B,,]) | (!^![E,,A,,C,E,]3 !wedge![C,,E,,A,,]) | %71
 (!^![B,,,F,,A,,B,,]!^![F,,F,]!^![E,,^G,,E,]!^![E,^G,]) | !^![A,,D,^G,]2 [A,,C,] z |]: %73
[K:treble]"^vivacissimo" (3.[A,CA].[A,CA].[A,CA] (3.[Ec].[DB].[CA] | %74
[K:bass] (3.[E,^G,DE].[E,G,DE].[E,G,DE] (3.[B,=G].[A,F].[^G,E] | %75
[K:treble] (3.[A,CA].[A,CA].[A,CA] (3.[Ec].[DB].[CA] | %76
[K:bass] (3.[A,CF].[G,B,E].[F,A,^D] .[E,^G,E] z :| %77
[K:treble] (3.[A,^CGA].[A,CGA].[A,CGA] (3.[CG_B].[CFA].[CEG] | %78
[K:bass] (3.[E,G,_B,].[^C,F,A,].[A,,E,G,] (3.[D,G,B,].[D,F,A,].[DF] | %79
[K:treble] (3.[G,=B,FG].[G,B,FG].[G,B,FG] (3.[B,F_A].[B,EG].[B,DF] | %80
[K:bass] (3.[D,F,_A,].[B,,E,G,].[G,,D,F,] (3.[C,E,A,].[C,E,G,].[CE] | %81
 (3.[D,^G,B,F].[D,G,B,].[D,G,B,] (3.[F,G,D].[E,G,=C].[D,G,B,] | %82
 (3.[C,A,E].[C,E,A,].[C,E,A,] (3.[E,=C].[D,E,B,].[C,E,A,] | %83
 (3.[A,,C,F,].[G,,B,,E,].[F,,A,,^D,] (3.[E,,^G,,E,].[E,,G,,=D,E,].[E,,B,,D,E,] | %84
 ([A,,C,]/G,/E,/^D,/(5:4:5=D,/^C,/=C,/B,,/_B,,/) |] A,, x2[K:treble][K:bass]!>(! (3(C/B,/!>)!A,/) | %86
 !wedge!^G, x2[K:treble][K:bass]!>(! (3(E,/^F,/G,/)!>)! | %87
 !wedge!A, x2[K:treble][K:bass]!>(! (3(C/B,/!>)!A,/) | ^G, x2[K:treble] z | %89
[K:bass]({E,,^F,,^G,,)} !wedge![A,,,A,,] x2[K:treble][K:bass] (3(C,/B,,/A,,/) | %90
 [^G,,,^G,,] x2[K:treble][K:bass] (3(E,,/^F,,/G,,/) | %91
 [A,,,A,,] x2[K:treble][K:bass] (3(C,/B,,/A,,/) | %92
 [^G,,,^G,,] x2[K:treble][K:bass] (3(A,,/B,,/C,/) | %93
 [^C,,^C,] x2[K:treble][K:bass] (3(A,,/=B,,/C,/) | [D,,D,] x2[K:treble][K:bass] (3(E,/D,/C,/) | %95
 [B,,,B,,] x2[K:treble][K:bass] (3(G,,/=A,,/B,,/) | [C,,C,] x2[K:treble][K:bass] (3(B,,/C,/^C,/) | %97
 !wedge![D,,D,] x2[K:treble][K:bass] (3(_B,,/C,/D,/) | %98
 !wedge!!^![E,,E,] x2[K:treble][K:bass] (3(F,/E,/_E,/) | %99
 !wedge!!^![D,,D,] (3(B,,/C,/D,/) !^![E,,E,] (3(D,/C,/B,,/) | %100
 !^![A,,,A,,][K:treble] !wedge![A,Ec] !wedge![A,CA] z |]: %101
[K:bass] [A,,,C,,]/[B,,,D,,]/[C,,E,,]/[D,,F,,]/[E,,^G,,]/[F,,A,,]/[G,,B,,]/[A,,C,]/ | %102
[B,,D,]/[C,E,]/[D,F,]/[E,^G,]/[F,A,]/[G,B,]/[A,C]/[B,D]/ | %103
!<(! !^![A,C]/[B,D]/[CE]/[DF]/!<)! !^![DF]/[CE]/!wedge![B,D]/!wedge![A,C]/ | %104
 !wedge![B,D]/!wedge![A,C]/!wedge![^G,B,]/!wedge![F,A,]/ [E,G,]2 :| %105
 [_B,_B]/[A,A]/[G,G]/[E,E]/[^C,^C]/[_B,,_B,]/[A,,F,A,]/[A,,E,G,]/ | %106
 [D,F,]/[^C,E,]/[B,,D,]/[A,,C,]/[G,,B,,]/[F,,A,,]/[E,,G,,]/[D,,F,,]/ | %107
 [_A,_A]/[G,G]/[F,F]/[D,D]/[B,,B,]/[_A,,A,]/[G,,E,G,]/[G,,D,F,]/ | %108
 [C,E,]/[B,,D,]/[A,,C,]/[G,,B,,]/ [F,,A,,]/[E,,G,,]/[D,,F,,]/[C,,E,,]/ | %109
 [D,,^G,,B,,D,]/[F,,F,]/[G,,^G,]/[B,,B,]/ !^![D,G,B,D]/[^D,^D]/!^![E,G,B,E]/[F,F]/ | %110
 [A,,,^D,,^F,,A,,]/[C,,C,]/[D,,^D,]/[F,,^F,]/ !^![A,,D,F,A,]/[^A,,^A,]/!^![B,,D,F,B,]/[C,C]/ | %111
 !^![=D,A,B,]/^D,/!^![E,A,B,]/F,/ !^![E,^G,E] [^E,,G,,=D,E,] | %112
 (!^![A,,C,E,]2 !wedge![A,,,E,,A,,]) z |]:"^quasi \nFagotto\n" (3(E/F/E/) !>!C2 (3(A,/B,/A,/) | %114
 (3(B,/C/B,/) (3(^G,/A,/G,/) (3(E,/F,/E,/) !wedge![A,,E,G,] | (3(E/F/E/) !>!C2 (3A,/B,/A,/ | %116
 (3^G,/A,/=G,/ (3(^F,/G,/=F,/) (3(E,/F,/E,/) !wedge!B,, :| (3(E/F/E/) _B,2 (3(A,/B,/A,/) | %118
 (3(D/E/D/) (3([G,A,]/^C,/A,,/) (3([D,F,]/A,,/D,,/) (3(D,/4E,/4)!wedge!D,/4 z/ | %119
 (3(D/E/D/ _A,2) (3(G,/=A,/G,/) | %120
 (3(C/D/C/) (3([F,G,]/B,,/G,,/) (3([C,E,]/G,,/C,,/) (3(C,/4D,/4!wedge!C,/4) z/ | %121
 (3(D/E/D/) !wedge!F2[K:treble] (3(B/4d/4c/4).B/4 z/4 | %122
[K:bass] (3(C/D/C/) E2[K:treble] (3(A/4c/4B/4).A/4 z/4 | %123
[K:bass] !wedge![D,A,B,]!wedge![DF] !wedge![E,B,E]!wedge![E^G] | %124
 !wedge![A,EA]!wedge![D,,A,,] !wedge![A,,,A,,] z |] %125
 z/ !wedge!A,,/!wedge!E/ !wedge!C,/!wedge!E/ !wedge!B,,/!wedge!E/!wedge!A,,/ | %126
!wedge!B,/!wedge!^G,,/"_simile" ^G,/E,,/ A,/^F,,/ B,/G,,/ | C/ A,,/E/ C,/E/ B,,/E/ A,,/ | %128
B,/^G,,/B,/ F,,/B,/E,,/ !wedge![E,^G,B,E] | %129
 !arpeggio!!wedge![A,,C,A,]!arpeggio!!wedge![A,,E,C] !arpeggio!!wedge![A,,D,B,]!arpeggio!!wedge![A,,C,A,] | %130
 !arpeggio!!wedge![^G,,E,E][B,DG] [A,CF][^G,B,E] | %131
 !arpeggio![A,,C,A,]!arpeggio![A,,E,C] !arpeggio![A,,D,B,]!arpeggio![A,,C,A,] | %132
 !arpeggio![^G,,B,,E,]!arpeggio![F,,B,,A,]!arpeggio![E,,B,,^G,] !wedge![E,G,B,E]/ x/ || %133
 z/ A,,/[B,D]/ B,,/[^CE]/ ^C,/[A,C]/ [A,,,A,,]/ | %134
 !arpeggio!!wedge![D,,F,,A,,D,]!arpeggio!!wedge![D,,G,,A,,E,]!arpeggio!!wedge![D,,A,,F,]!arpeggio!!wedge![D,,F,,D,] | %135
 z/ G,,/[A,C]/ A,,/[B,D]/ B,,/[G,B,]/ [G,,,G,,]/ | %136
 !arpeggio!!wedge![C,,E,,G,,C,]!arpeggio!!wedge![C,,F,,G,,D,]!arpeggio!!wedge![C,,G,,E,]!arpeggio!!wedge![C,,E,,C,] | %137
 !wedge![D,,D,]/!wedge![^G,B,F]/ !wedge![F,,F,]/!wedge![G,B,F]/ !wedge![E,,E,]/!wedge![G,B,F]/ !wedge![D,,D,]/!wedge![G,B,F]/ | %138
 !wedge![C,,C,]/!wedge![A,CE]/ !wedge![B,,,B,,]/!wedge![F,^G,D]/ !wedge![A,,,A,,]/!wedge![E,A,C]/ !wedge![=G,,,=G,,]/!wedge![^C,E,_B,]/ | %139
 !wedge![F,,,F,,]/!wedge![D,F,A,]/ !wedge![^D,,^D,]/!wedge![^F,A,C]/ !wedge![E,,E,]/!wedge![A,B,]/ !wedge![E,,E,]/!wedge![^G,B,]/ | %140
 [A,,,A,,]/ [A,,C,E,]/[C,E,A,]/[E,A,C]/[K:treble][A,CE]/[CEA]/[EAc]/[Ace]/ |]: %141
[K:bass] A,,,(3(C,,/D,,/C,,/)!wedge!B,,,!wedge!A,,, | E,,(3(=G,,/A,,/G,,/)!wedge!F,,!wedge!E,, | %143
 A,,,(3(C,,/D,,/C,,/)!wedge!B,,,!wedge!A,,, | E,, (!^![B,,D,=G,][A,,C,F,][^G,,B,,E,]) :| %145
 A,,(3(_B,,/=C,/B,,/)!wedge!A,,!wedge!G,, | z !>![DF]!>![F,D] _B,/_A,/ | %147
 G,,(3(_A,,/_B,,/A,,/)!wedge!G,,!wedge!F,, | x (!>!^F,/G,/) (!>!_A,/G,/) !^![CE] | %149
 !wedge![D,^G,B,F]/[K:treble]!arpeggio!^G/ x/ !arpeggio![FG] x/ x | x/ x/[K:bass] x x2 | %151
 z/ !wedge![D,,A,,B,,]/!>![A,B,F] z/ !wedge![E,,B,,D,]/!>![B,DE] | %152
 z/ [A,,E,]/[K:treble]!wedge![Ec][K:bass] A,,, z |] !trill(!TE4- | E4- | E4- | E4 | E4- | E4- | %159
 E4- | E4 | x !trill(!TE3- | E (5:4:5E/4F/4E/4^C/4E/4 F !wedge!D,, | %163
 G,, F/4E/4F/4E/4 F/4E/4F/4E/4F/4E/4F/4E/4 | F/4E/4F/4E/4F/4E/4F/4E/4 !wedge!C !wedge!C,, | %165
 D,, F/4E/4F/4E/4 F/4E/4F/4E/4F/4E/4F/4E/4 | ^F/4E/4F/4E/4 [^G,D] A,,/C/[E,A,]/^C/ | %167
 D,/A,/[DF]/[^D^F]/ E,/[K:treble]=F/E/[K:bass] !wedge![E,B,E]/ | [A,CE]3 z |] %169
{E,,^F,,^G,,} (!^![A,,,A,,]/!wedge![C,E,A,]/) ([C,,C,]/!wedge!!^![E,A,C]/) (!^![B,,,B,,]/!wedge![D,E,^G,B,]/) (!^![A,,,A,,]/!wedge![C,E,A,]/) | %170
 (3z/4 (^G,,,/4B,,,/4(3E,,/4E,,/4^G,,/4(3[B,,E,]/4E,/4^G,/4(3[B,E]/4[K:treble]E/4^G/4(3!^![de]/4[GB]/4E/4[K:bass](3E/4[G,B,]/4E,/4(3E,/4[G,,B,,]/4E,,/4(3E,,/4B,,,/4G,,,/4) | %171
 !^![A,,,A,,]/!wedge![C,E,A,]/ [C,,C,]/!wedge!!^![E,A,C]/ !^![B,,,B,,]/!wedge![D,E,^G,B,]/ !^![A,,,A,,]/!wedge![C,E,A,]/ | %172
 !wedge![E,,^G,,B,,E,]/4 E,/4F,/4^F,/4G,/4^G,/4A,/4_B,/4=B,/4C/4^C/4D/4_E/4=E/4F/4E/4 | %173
{E,,^F,,^G,,} (!^![A,,,A,,]/!wedge![C,E,A,]/) ([C,,C,]/!wedge!!^![E,A,C]/) (!^![B,,,B,,]/!wedge![D,E,^G,B,]/) (!^![A,,,A,,]/!wedge![C,E,A,]/) | %174
 (3z/4 (^G,,,/4B,,,/4(3E,,/4E,,/4^G,,/4(3[B,,E,]/4E,/4^G,/4(3[B,E]/4[K:treble]E/4^G/4(3!^![de]/4[GB]/4E/4[K:bass](3E/4[G,B,]/4E,/4(3E,/4[G,,B,,]/4E,,/4(3E,,/4B,,,/4G,,,/4) | %175
 (!^![A,,,A,,]/!wedge![C,E,A,]/) ([C,,C,]/!wedge!!^![E,A,C]/) (!^![B,,,B,,]/!wedge![D,E,^G,B,]/) (!^![A,,,A,,]/!wedge![C,E,A,]/) | %176
 !wedge![E,,^G,,B,,E,]/4 E,/4F,/4^F,/4G,/4^G,/4A,/4_B,/4=B,/4C/4^C/4D/4_E/4=E/4F/4E/4 | %177
 [^C,E,A,]/([^C,,C,]/!wedge!!^![C,G,_B,]/)([C,,_B,,]/ !wedge!!^![C,F,A,]/)([C,,A,,]/!wedge!!^![C,E,G,]/)!wedge![C,,A,,]/ | %178
 (5:4:5z/4 D,,/4A,,/4D,/4D,/4 (5:4:5F/4A,/4F,/4A,,/4D,,/4 (5:4:5E/4G,/4E,/4A,,/4D,,/4 (5:4:5D/4F,/4D,/4A,,/4D,,/4 | %179
 [B,,D,G,]/([B,,,B,,]/!wedge!!^![B,,F,_A,]/)([B,,,_A,,]/ !wedge!!^![B,,E,G,]/)([B,,,B,,]/!wedge!!^![B,,D,F,]/)!wedge![B,,,G,,]/ | %180
 (5:4:5z/4 C,,/4G,,/4C,/4C,/4 (5:4:5E/4G,/4E,/4G,,/4C,,/4 (5:4:5D/4F,/4D,/4G,,/4C,,/4 (5:4:5C/4E,/4C,/4G,,/4C,,/4 | %181
 .[^G,B,DF]/.[F,,F,]/ .[D,F,G,B,]/.[B,,,B,,]/ .[^F,A,C_E]/.[_E,,_E,]/ .[C,E,F,A,]/.[A,,,A,,]/ | %182
 .[E,G,_B,_D]/.[_D,,_D,]/ .[_B,,D,E,G,]/.[G,,,G,,]/ .[=D,F,_A,_C]/.[_C,,_C,]/ .[_A,,_C,D,F,]/.[F,,,F,,]/ | %183
 .[D,F,=A,=B,]/.[B,,,B,,]/ .[A,,B,,D,F,]/.[F,,,F,,]/ .[^D,F,A,B,]/.[B,,,B,,]/ .[A,,B,,D,F,]/.[F,,,F,,]/ | %184
 .[E,A,B,].[E,,A,,B,,E,] .[E,^G,B,E].[E,,^G,,B,,E,] | %185
 !arpeggio![A,,,C,,E,,A,,]/4 x/4 z/4 !wedge!A,/4 (A,/4C/4B,/4A,/4) !wedge!E/ z/4 !wedge!E,,/4 (E,,/4G,,/4F,,/4E,,/4) | %186
 !arpeggio![A,,,^C,,E,,A,,]/4 x/4 z/4 !wedge!A,/4 (A,/4C/4_B,/4A,/4) !wedge!G/ z/4 !wedge!A,,/4 (A,,/4C,/4_B,,/4A,,/4) | %187
 !arpeggio![D,,F,,A,,D,]/4 x/4 z/4 !wedge!A,/4 A,/4C/4_B,/4A,/4 !wedge!F/ z/4 !wedge!D,,/4 (D,,/4^C,,/4D,,/4E,,/4) | %188
 !wedge!F,,/[K:treble]!wedge![B,F^G]/[K:bass] !wedge![^G,,^G,]/[K:treble]!wedge![DGB]/[K:bass] !wedge![B,,B,]/[K:treble]!wedge![FBd]/[K:bass] !wedge![E,,E,]/!wedge![G,B,E]/ | %189
 [A,,,C,,E,,A,,]/4 x/4 z/4 !wedge!A,/4 A,/4C/4B,/4A,/4 !wedge!E/ z/4 !wedge!E,,/4 (E,,/4G,,/4F,,/4E,,/4) | %190
 [A,,,^C,,E,,A,,]/4 x/4 z/4 !wedge!A,/4 (A,/4C/4_B,/4A,/4) !wedge!G/ z/4 !wedge!A,,/4 (A,,/4C,/4_B,,/4A,,/4) | %191
 [D,,F,,A,,D,]/4 x/4 z/4 !wedge!A,/4 (A,/4C/4_B,/4A,/4) !wedge!F/ z/4 !wedge!D,,/4 (D,,/4^C,,/4D,,/4E,,/4) | %192
 !wedge!F,,/[K:treble]!wedge![B,F^G]/[K:bass] !wedge![^G,,^G,]/[K:treble]!wedge![DGB]/[K:bass] !wedge![B,,B,]/[K:treble]!wedge![FBd]/[K:bass] !wedge![E,,E,]/!wedge![G,B,E]/ || %193
[K:A] (24:16:24!^!A,,,/4C,,/4E,,/4A,,/4C,/4E,/4A,/4C/4[K:treble]E/4A/4c/4e/4!^!a/4e/4c/4A/4E/4[K:bass]C/4A,/4E,/4C,/4A,,/4E,,/4C,,/4 | %194
 (26:16:26!^!A,,,/4C,,/4E,,/4A,,/4C,/4E,/4A,/4C/4[K:treble]E/4A/4c/4e/4a/4!^!c'/4a/4e/4c/4A/4E/4[K:bass]C/4A,/4E,/4C,/4A,,/4E,,/4C,,/4 | %195
 (28:16:28!^!A,,,/4C,,/4E,,/4A,,/4C,/4E,/4A,/4C/4[K:treble]E/4A/4c/4e/4a/4c'/4!^!e'/4c'/4a/4e/4c/4A/4E/4[K:bass]C/4A,/4E,/4C,/4A,,/4E,,/4C,,/4 | %196
 (30:16:30!^!A,,,/4C,,/4E,,/4A,,/4C,/4E,/4A,/4C/4[K:treble]E/4A/4c/4e/4a/4c'/4e'/4!^!=f'/4e'/4c'/4a/4e/4c/4A/4E/4[K:bass]C/4A,/4E,/4C,/4A,,/4E,,/4C,,/4 | %197
 !trill(!TA,,,4 | !trill(!TA,,,2 !trill(!TA,,,2 | !wedge![A,,C,E,A,] z z2 |] %200
V:4
 z4 | z4 | z4 | z4 :| z4 | z4 | z4 | z4 | z4 | z4 | z4 | z4 | z4 | z4 | z4 | z4 | z4 | z4 | z4 | %19
 z4 |] z4 | z4 | z4 |1 z4 :|2 z4 || z4 | z4 | z4 | z4 | z4 | z4 | z4 | z4 |] z4 | z4 | z4 | z4 | %37
 z4 | z4 | z4 | z4 | z4 | z4 | z4 | z4 | z4 | z4 | z4 | z4 | z4 | z4 | z4 | z4 | z4 | z4 | z4 | %56
 z4 |] z4 | z4 | z4 | z4 | z4 | z4 | z4 | z4 | z4 | z4 | z4 | z4 | z4 | z4 | z4 | z4 |]: z4 | z4 | %75
 z4 | z4 :| z4 | z4 | z4 | z4 | z4 | z4 | z4 | z4 |] z4 | z4 | z4 | z4 | z4 | z4 | z4 | z4 | z4 | %94
 z4 | z4 | z4 | z4 | z4 | z4 | z4 |]: %101
[K:bass]!<(! [A,,,C,]/[B,,,D,]/[C,,E,]/[D,,F,]/[E,,^G,]/[F,,A,]/[^G,,B,]/[A,,C]/ | %102
[B,,D]/[C,E]/[D,F]/[E,^G]/[K:treble][F,A]/[^G,B]/[A,c]/[B,d]/!<)! | %103
 !^![A,c]/[=G,B]/[F,A]/[E,G]/[K:bass] !^![D,F]/[C,E]/!wedge![B,,D]/!wedge![A,,C]/ | %104
 !wedge![B,,D]/!wedge![A,,C]/!wedge![^G,,B,]/!wedge![F,,A,]/ [E,,^G,]2 :| z4 | z4 | z4 | z4 | z4 | %110
 z4 | z4 | z4 |]: z4 | z4 | z4 | z4 :| z4 | z4 | z4 | z4 | z4 | z4 | z4 | z4 |] z4 | z4 | z4 | z4 | %129
 z4 | z4 | z4 | z4 || z4 | z4 | z4 | z4 | z4 | z4 | z4 | z4 |]: z4 | z4 | z4 | z4 :| z4 | z4 | z4 | %148
 z4 | z4 | z4 | z4 | z4 |] z4 | z4 | z4 | z4 | z4 | z4 | z4 | z4 | z4 | z4 | z4 | z4 | z4 | z4 | %167
 z4 | z4 |] z4 | z4 | z4 | z4 | z4 | z4 | z4 | z4 | z4 | z4 | z4 | z4 | z4 | z4 | z4 | z4 | z4 | %186
 z4 | z4 | z4 | z4 | z4 | z4 | z4 ||[K:A] z4 | z4 | z4 | z4 | z4 | z4 | z4 |] %200
V:5
 x4 | x4 | x4 | x4 :| x4 | x4 | x4 | x4 | x4 | x4 | z !wedge![A,B,] z !wedge![^G,B,] | x4 | %12
 x2[K:treble] x2 |[K:bass] x2[K:treble] x2 |[K:bass] x2[K:treble] x2 |[K:bass] x2[K:treble] x2 | %16
[K:bass] x4 | x4 | !^![F,,F,]2 [E,,E,]2 | x4 |] x4 | x4 | x4 |1 x2[K:treble] x4/3[K:bass] x2/3 :|2 %24
 x4 || z !arpeggio!!wedge![A,^CE] z2 |[K:bass] z !arpeggio!!wedge![D,A,] z2 | %27
 z !arpeggio!!wedge![G,B,D] z2 | z !arpeggio!!wedge![C,G,] z2 | z !arpeggio!!wedge![D,^G,B,] z2 | %30
 z !arpeggio!!wedge![C,E,A,] z2 | D, z E,,[E,^G,] | A,,2[K:treble] x2 |][K:bass] F,,F,, x2 | %34
 [E,,B,,][E,,B,,] x2 | F,,F,, x2 | E,,E,, x2 | F,,F,, x2 | [E,,B,,][E,,B,,] x2 | F,,F,, x2 | %40
 E,,E,, x2 | ^C,,C,, x2 | A,,A,, x2 | B,,,B,,, x2 | G,,G,, x2 | [D,,^G,,][D,,G,,] x2 | C,,C,, x2 | %47
 ^F,,=F,, E,,2 | A,,D,, A,,, x | ^C,,C,, x2 | A,,A,, x2 | B,,,B,,, x2 | G,,G,, x2 | %53
 [D,,^G,,B,,] x3 | [C,,A,,] x3 | ^F,,=F,, E,,2 | A,,D,, A,,, x |] !^![A,,,A,,]3 !>![A,,,A,,] | x4 | %59
 !^![C,,C,]3 !>![A,,,A,,] | x4 | !^![A,,,A,,]3 !>![A,,,A,,] | x4 | !^![C,,C,]3 !>![A,,,A,,] | x4 | %65
 z3/2[K:treble] [^CEA]/[CEA]/ z/[K:bass] z | !arpeggio![F,,A,,]2 !arpeggio![A,,D,]2 | %67
 z3/2[K:treble] [B,DG]/[B,DG]/ z/[K:bass] z | !arpeggio![E,,G,,]2 !arpeggio![G,,C,]2 | %69
 z3/2 [^G,B,DF]/[G,B,DF]/ z/ z | z3/2 [A,CE]/[A,CE]/ z/ z | x4 | (E,/=G,/F,/E,/-) E, x |]: %73
[K:treble] x4 |[K:bass] x4 |[K:treble] x4 |[K:bass] x4 :|[K:treble] x4 |[K:bass] x4 | %79
[K:treble] x4 |[K:bass] x4 | x4 | x4 | x4 | x4 |] x2[K:treble] x[K:bass] (3(C,/B,,/A,,/) | %86
 !wedge!^G,, x[K:treble] x[K:bass] (3(E,,/^F,,/G,,/) | %87
 !wedge!A,, x[K:treble] x[K:bass] (3(C,/B,,/A,,/) | ^G,, x[K:treble] x2 | %89
[K:bass] x2[K:treble] x[K:bass] x | x2[K:treble] x[K:bass] x | x2[K:treble] x[K:bass] x | %92
 x2[K:treble] x[K:bass] x | x2[K:treble] x[K:bass] x | x2[K:treble] x[K:bass] x | %95
 x2[K:treble] x[K:bass] x | x2[K:treble] x[K:bass] x | x2[K:treble] x[K:bass] x | %98
 x2[K:treble] x[K:bass] x | x4 | x[K:treble] x3 |]:[K:bass] x4 | x4 | x4 | x4 :| x4 | x4 | x4 | %108
 x4 | x4 | x4 | x4 | x4 |]: x .[A,,E,]/.[A,,E,]/!wedge![A,,E,] x | x4 | %115
 x .[A,,E,]/.[A,,E,]/!wedge![A,,E,] x | x3 !wedge!E,, :| x .[A,,G,]/.[A,,G,]/!wedge![A,,G,] x | %118
 x4 | x .[G,,F,]/.[G,,F,]/!wedge![G,,F,] z | x4 | %121
 x [D,^G,B,]/.[D,G,B,]/!wedge![D,G,B,][K:treble] ^G/ x/ | %122
[K:bass] x [C,A,]/.[C,A,]/!wedge![C,A,][K:treble] E/ x/ |[K:bass] x4 | x4 |] x4 | x4 | x4 | x4 | %129
 x4 | x4 | x4 | x4 || x4 | x4 | x4 | x4 | x4 | x4 | x4 | x2[K:treble] x2 |]:[K:bass] E,,4 | %142
 ^G,,,4 | E,,4 | ^G,,, x3 :| ^C,,4 | !wedge![D,,F,,] (_B,/A,/) (^G,/A,/) !>![D,F,] | B,,,4 | %148
 [C,,E,,] [C,E,] E, =A,/G,/ | x/[K:treble] x7/2 | x[K:bass] x3 | x4 | x[K:treble] x[K:bass] x2 |] %153
 A,3 A, | A,A,A,A, | A,2 A,A, | [A,B,]2 [A,B,] z | A,3 A, | A,A,A,A, | A,2 A,A, | %160
 [A,B,]2 [A,B,] !trill)!z | A,, A, z2 | !trill)!z A, !wedge!D x | x [G,D] x2 | %164
 z !wedge!G, F/ x3/2 | z [D,^G,B,]2 x | x =F,/E,/ x2 | x5/2[K:treble] [B=d][K:bass] x/ | x4 |] x4 | %170
 x5/3[K:treble] x5/6[K:bass] x3/2 | x4 | x4 | x4 | x5/3[K:treble] x5/6[K:bass] x3/2 | x4 | x4 | %177
 x4 | z !^!F !^!E !^!D | x4 | z !^!E !^!D !^!C | x4 | x4 | x4 | x4 | x4 | x4 | x4 | %188
 x/[K:treble] x/[K:bass] x/[K:treble] x/[K:bass] x/[K:treble] x/[K:bass] x | x4 | x4 | x4 | %192
 x/[K:treble] x/[K:bass] x/[K:treble] x/[K:bass] x/[K:treble] x/[K:bass] x || %193
[K:A] x4/3[K:treble] x3/2[K:bass] x7/6 | x79/64[K:treble] x109/64[K:bass] x | %195
 x17/15[K:treble] x59/32[K:bass] x41/40 | x16/15[K:treble] x2[K:bass] x14/15 | !//-!x2 !trill)!x2 | %198
 !//-!x3/2 x3/2 x/4x/4!trill)!x/{G,,,A,,,} | x4 |] %200

